X:1
T:[ID 8-11b]
T:[ID 8-11b]
T:Bezeichnung standardisiert: Menuet de Roise [2]; Menuet de Roise Nro 1
T:Urheber unbekannt Erstbeleg: 1792 (Datum in der schriftlichen Quelle) Datum in der hier transkribierten schriftlichen Quelle: vermutlich um 1800
C:Urheber unbekannt
C:Erstbeleg: 1792 (Datum in der schriftlichen Quelle)
C:Datum in der hier transkribierten schriftlichen Quelle: vermutlich um 1800
L:1/8
M:3/4
K:D
V:1 treble 
V:1
 a2 f2 Tg2 | a3 b a2 | g2 e2 Tf2 | g3 a e2 | f/g/a/b/ a2 z2 | d'3/2(c'/4b/4) a2 z2 | %6
 a3/2(g/4a/4) b/a/g/f/ | e6 ::"^1)" e2 c2 d2 | e3 f e2 |"^1)" e2 c2 d2 | e3 f e2 | %12
 g3/2(f/4g/4) e2 z2 | g3/2(f/4g/4) e2 z2 | f/g/a/b/ aa b/a/g/f/ | e6 | a2 f2 Tg2 | a3 b a2 | %18
 g2 e2 Tf2 | g3 a g2 | f/g/a/b/ a2 z2 | d'3/2c'/4b/4 a2 z2 | a>a (gfed) | e4 d2 :| %24

